X:1
T:The Eavesdropper
R:jig
M:6/8
L:1/8
K:G
|:D2B BAG|Bdd dBG|cde dBG|BAA AGE|
|D2B BAG|Bdd dBG|cde dBA|1 BGF G2E:|2 BGF G2d|]
|:gfg afd|efg dBG|cde dBG|BAA A2d|
|gab afd|efg dBG|cde dBA|1 BGF G2d:|2 BGF G2E|]